X:417
T:Reel 417
M:4/4
K:Dmix
L:1/8
AG|F>D (3DCD A>D (3DCD |EGD (3DDD d2c2|G>E (3GCC G>C (3EDC |G>C (3CCC GcAG|F>D (3DDD A,>D (3DCD |FDDE DEFG|BccB AGFG|GEcE D2|FG|Addc dedc|Adde fdec|AccB cdcd| (3cBc Ac GcEc|Adde dcdcAG|Addc dcAF|G2Bc dABG|AFGE D2|
